X:286
T:Bonnie Charlie
M:4/4
L:1/8
K:DMaj
e|{Gdc}d3e{g}f2d2|{g2}B(dd2){G}A4|{ag}a4{GdG}a2f2|{gfg}f(ee2){A}e4|
{Gdc}d3e{g}f2d2|{g}B(dd2){G}A4|{ag}a4{GdG}a2f2|{gef}e3d{gdG}d4||
{g}f2a2{g}a2{GdG}a2|{fg}f2a2{g}a4|{Gdc}d3c{gBd}B2{G}A2|{gf}g3/2f/2{g}ed{
gef}e3{A}e|
{g}f3{e}f{gef}e2d2|{g}B(dd2){G}A4|{ag}a4{GdG}a2f2|{gef}e3d{gdG}d4||

